X:009
U: ~ = !turn!
%%topmargin 3cm
T:Battering Ram
B:Traditional Irish Fiddle Tunes. Randy Miller and Jack Perron.
Z:Transcribed by Ralph Palmer
R:Jig
M:6/8
L:1/8
K:G
d | B2G A2G | B2D D2d | BAG AGE | GDD D2d |
B2G A2G | B/2c/2dB BAG | ABA BAB | GDD D2d ||
B2G AGA | B2D D2d | BAG AGE | GDD D2d |
B2G A2G | B/2c/2dB BAG | ABA BAB | GDD D2B ||
dBG A2B | dBG G2B | dBG AGE | GDD D2B |
BdB BAG | BdB AGE | B2G AGE | GDD D2B ||
deg aga | bag age | deg aga | bag e2g |
bag age | ged edB | dBG AGE | GDD D2B |]
